resource/icon/dark/scalable/document-close.svg

<svg width="24" height="24" viewBox="0 0 24 24" xmlns="http://www.w3.org/2000/svg"><path d="M0 0h24v24H0V0z" fill="none"/><path d="m11.17 8-2-2h-5.17v12h16v-10zm6.83 4v2h-6v-2h6z" opacity=".3"/><path d="m20 6h-8l-2-2h-6c-1.11 0-1.99 0.89-1.99 2l-0.01 12c0 1.11 0.89 2 2 2h16c1.11 0 2-0.89 2-2v-10c0-1.11-0.89-2-2-2zm0 12h-16v-12h5.17l2 2h8.83zm-8-4c1.9764-0.0016 4.0243-0.0014 6 0v-2h-6z" fill="snow"/></svg>

<?xml version="1.0" encoding="UTF-8" standalone="no"?>
<svg
   height="24"
   viewBox="0 0 24 24"
   width="24"
   version="1.1"
   id="svg3"
   sodipodi:docname="document-close.svg"
   inkscape:version="1.4 (e7c3feb100, 2024-10-09)"
   xmlns:inkscape="http://www.inkscape.org/namespaces/inkscape"
   xmlns:sodipodi="http://sodipodi.sourceforge.net/DTD/sodipodi-0.dtd"
   xmlns="http://www.w3.org/2000/svg"
   xmlns:svg="http://www.w3.org/2000/svg">
  <defs
     id="defs3" />
  <sodipodi:namedview
     id="namedview3"
     pagecolor="#ffffff"
     bordercolor="#666666"
     borderopacity="1.0"
     inkscape:showpageshadow="2"
     inkscape:pageopacity="0.0"
     inkscape:pagecheckerboard="0"
     inkscape:deskcolor="#d1d1d1"
     inkscape:zoom="32.958333"
     inkscape:cx="12.015171"
     inkscape:cy="12"
     inkscape:window-width="2560"
     inkscape:window-height="995"
     inkscape:window-x="0"
     inkscape:window-y="0"
     inkscape:window-maximized="1"
     inkscape:current-layer="svg3" />
  <path
     d="M0 0h24v24H0V0z"
     fill="none"
     id="path1" />
  <path
     d="M11.17 8l-.58-.59L9.17 6H4v12h16V8h-8z"
     opacity=".3"
     id="path2" />
  <path
     d="M20 6h-8l-2-2H4c-1.1 0-1.99.9-1.99 2L2 18c0 1.1.9 2 2 2h16c1.1 0 2-.9 2-2V8c0-1.1-.9-2-2-2zm0 12H4V6h5.17l1.41 1.41.59.59H20v10z"
     id="path3"
     style="fill:#fffafa;fill-opacity:1" />
</svg>
